packages/radix-icons/outline/15/lock.svg

<svg width="15" height="15" fill="none" xmlns="http://www.w3.org/2000/svg">
  <path
    fill-rule="evenodd"
    clip-rule="evenodd"
    d="M7.5 1.125C5.567 1.125 4 2.692 4 4.625V6H3C2.44772 6 2 6.44772 2 7V13C2 13.5523 2.44772 14 3 14H12C12.5523 14 13 13.5523 13 13V7C13 6.44772 12.5523 6 12 6H11V4.625C11 2.692 9.433 1.125 7.5 1.125ZM10 6V4.625C10 3.24429 8.88071 2.125 7.5 2.125C6.11929 2.125 5 3.24429 5 4.625V6H10ZM4 7H3V13H12V7H11H10.5H4.5H4Z"
    fill="currentColor"
  />
</svg>

<svg width="15" height="15" fill="none" xmlns="http://www.w3.org/2000/svg">
  <path
    fill-rule="evenodd"
    clip-rule="evenodd"
    d="M7.5 1.125a3.5 3.5 0 00-3.5 3.5V6H3a1 1 0 00-1 1v6a1 1 0 001 1h9a1 1 0 001-1V7a1 1 0 00-1-1h-1V4.625a3.5 3.5 0 00-3.5-3.5zM10 6V4.625a2.5 2.5 0 00-5 0V6h5zM4 7H3v6h9V7H4z"
    fill="currentColor"
  />
</svg>
